lib/flags/pk-pakistan.svg

<svg xmlns="http://www.w3.org/2000/svg" fill="none" aria-hidden="true" viewBox="0 0 42 30"><g id="Country=PK - Pakistan, Size=sm (36x24)" filter="url(#filter0_dd_91_25853)"><g clip-path="url(#clip0_91_25853)"><g id="flag"><mask id="mask0_91_25853" width="36" height="24" x="3" y="2" maskUnits="userSpaceOnUse" style="mask-type:alpha"><rect id="mask" width="36" height="24" x="3" y="2" fill="white"/></mask><g mask="url(#mask0_91_25853)"><g id="contents"><path id="bottom" fill="#2F8D00" fill-rule="evenodd" d="M12 2H39V26H12V2Z" clip-rule="evenodd"/><path id="middle" fill="#F7FCFF" fill-rule="evenodd" d="M3 2H12V26H3V2Z" clip-rule="evenodd"/><g id="mark"><path id="Combined shape 1695" fill="#F1F9FF" fill-rule="evenodd" d="M28.2331 17.3067C28.2331 17.3067 23.2091 18.471 19.2213 16.096C15.2336 13.7211 17.2382 8.24821 17.2382 8.24821C15.1581 8.51726 11.8915 15.2631 17.157 18.6466C22.4224 22.03 27.4667 18.7777 28.2331 17.3067ZM22.658 10.8669L19.9901 12.0266L22.8047 12.4722L23.1846 14.9177L24.7788 12.8349L27.9158 13.0229L25.4588 11.394L26.7668 9.21766L24.3207 10.2135L22.5035 8.69483L22.658 10.8669Z" clip-rule="evenodd"/></g></g></g></g></g></g><defs><filter id="filter0_dd_91_25853" width="42" height="30" x="0" y="0" color-interpolation-filters="sRGB" filterUnits="userSpaceOnUse"><feFlood flood-opacity="0" result="BackgroundImageFix"/><feColorMatrix in="SourceAlpha" result="hardAlpha" values="0 0 0 0 0 0 0 0 0 0 0 0 0 0 0 0 0 0 127 0"/><feOffset dy="1"/><feGaussianBlur stdDeviation="1"/><feColorMatrix values="0 0 0 0 0.0627451 0 0 0 0 0.0941176 0 0 0 0 0.156863 0 0 0 0.06 0"/><feBlend in2="BackgroundImageFix" result="effect1_dropShadow_91_25853"/><feColorMatrix in="SourceAlpha" result="hardAlpha" values="0 0 0 0 0 0 0 0 0 0 0 0 0 0 0 0 0 0 127 0"/><feOffset dy="1"/><feGaussianBlur stdDeviation="1.5"/><feColorMatrix values="0 0 0 0 0.0627451 0 0 0 0 0.0941176 0 0 0 0 0.156863 0 0 0 0.1 0"/><feBlend in2="effect1_dropShadow_91_25853" result="effect2_dropShadow_91_25853"/><feBlend in="SourceGraphic" in2="effect2_dropShadow_91_25853" result="shape"/></filter><clipPath id="clip0_91_25853"><rect width="36" height="24" x="3" y="2" fill="white" rx="2"/></clipPath></defs></svg>

<svg xmlns="http://www.w3.org/2000/svg" fill="none" aria-hidden="true" viewBox="0 0 42 30"><g filter="url(#a)"><g clip-path="url(#b)"><mask id="c" width="36" height="24" x="3" y="2" maskUnits="userSpaceOnUse" style="mask-type:alpha"><path fill="#fff" d="M3 2h36v24H3z"/></mask><g fill-rule="evenodd" clip-rule="evenodd" mask="url(#c)"><path fill="#2F8D00" d="M12 2h27v24H12V2Z"/><path fill="#F7FCFF" d="M3 2h9v24H3V2Z"/><path fill="#F1F9FF" d="M28.233 17.307s-5.024 1.164-9.012-1.211c-3.987-2.375-1.983-7.848-1.983-7.848-2.08.27-5.346 7.015-.081 10.399 5.265 3.383 10.31.13 11.076-1.34Zm-5.575-6.44-2.668 1.16 2.815.445.38 2.446 1.594-2.083 3.137.188-2.457-1.629 1.308-2.176-2.446.995-1.818-1.518.155 2.172Z"/></g></g></g><defs><clipPath id="b"><rect width="36" height="24" x="3" y="2" fill="#fff" rx="2"/></clipPath><filter id="a" width="42" height="30" x="0" y="0" color-interpolation-filters="sRGB" filterUnits="userSpaceOnUse"><feFlood flood-opacity="0" result="BackgroundImageFix"/><feColorMatrix in="SourceAlpha" result="hardAlpha" values="0 0 0 0 0 0 0 0 0 0 0 0 0 0 0 0 0 0 127 0"/><feOffset dy="1"/><feGaussianBlur stdDeviation="1"/><feColorMatrix values="0 0 0 0 0.0627451 0 0 0 0 0.0941176 0 0 0 0 0.156863 0 0 0 0.06 0"/><feBlend in2="BackgroundImageFix" result="effect1_dropShadow_91_25853"/><feColorMatrix in="SourceAlpha" result="hardAlpha" values="0 0 0 0 0 0 0 0 0 0 0 0 0 0 0 0 0 0 127 0"/><feOffset dy="1"/><feGaussianBlur stdDeviation="1.5"/><feColorMatrix values="0 0 0 0 0.0627451 0 0 0 0 0.0941176 0 0 0 0 0.156863 0 0 0 0.1 0"/><feBlend in2="effect1_dropShadow_91_25853" result="effect2_dropShadow_91_25853"/><feBlend in="SourceGraphic" in2="effect2_dropShadow_91_25853" result="shape"/></filter></defs></svg>
